content/fr/images/chapitre6/credit-card.svg

<svg height="1000" width="1071.4" xmlns="http://www.w3.org/2000/svg"><path d="m982.1 71.4c49.2 0 89.3 40.2 89.3 89.3v678.6c0 49.1-40.1 89.3-89.3 89.3h-892.8c-49.1 0-89.3-40.2-89.3-89.3v-678.6c0-49.1 40.2-89.3 89.3-89.3h892.8z m-892.8 71.5c-9.5 0-17.9 8.3-17.9 17.8v125h928.6v-125c0-9.5-8.4-17.8-17.9-17.8h-892.8z m892.8 714.2c9.5 0 17.9-8.3 17.9-17.8v-339.3h-928.6v339.3c0 9.5 8.4 17.8 17.9 17.8h892.8z m-839.2-71.4v-71.4h142.8v71.4h-142.8z m214.2 0v-71.4h214.3v71.4h-214.3z" /></svg>

<?xml version="1.0" encoding="utf-8"?>
<!-- Generator: Adobe Illustrator 24.3.0, SVG Export Plug-In . SVG Version: 6.00 Build 0)  -->
<svg version="1.1" id="Calque_1" xmlns="http://www.w3.org/2000/svg" xmlns:xlink="http://www.w3.org/1999/xlink" x="0px" y="0px"
	 viewBox="0 0 1071.4 1000" style="enable-background:new 0 0 1071.4 1000;" xml:space="preserve">
<style type="text/css">
	.st0{fill:#333333;}
</style>
<path class="st0" d="M982.1,71.4c49.2,0,89.3,40.2,89.3,89.3v678.6c0,49.1-40.1,89.3-89.3,89.3H89.3C40.2,928.6,0,888.4,0,839.3
	V160.7c0-49.1,40.2-89.3,89.3-89.3L982.1,71.4L982.1,71.4z M89.3,142.9c-9.5,0-17.9,8.3-17.9,17.8v125H1000v-125
	c0-9.5-8.4-17.8-17.9-17.8L89.3,142.9L89.3,142.9z M982.1,857.1c9.5,0,17.9-8.3,17.9-17.8V500H71.4v339.3c0,9.5,8.4,17.8,17.9,17.8
	H982.1L982.1,857.1z M142.9,785.7v-71.4h142.8v71.4H142.9L142.9,785.7z M357.1,785.7v-71.4h214.3v71.4H357.1z"/>
</svg>
